X:1

T:Roaring Jelly

T:Smash the Windows

M:6/8

L:1/8

R:Jig

B:Stewart-Robertson - The Athole Collection  (1884)

Z:AK/Fiddler’s Companion

K:D Major

A,|DED F2A|d2f ecA|G2B F2A|E2F GFE|DED F2A|d2f ecA|Bgf edc|d3 d2:|

a|a2f f2d|A2a agf|g2e e2c|A2g gfe|f2d g2e|a2f bag|fed edc|d3 d2a|agf fed|

Adf agf|gfe ecA|Ace gfe|fed gfe|agf bag|fed edc|d3 d2||

           

ROARING LION. Old‑Time. The title appears in a list of traditional Ozark Mountain fiddle tunes compiled by musicologist/folklorist Vance Randolph, published in 1954.

                       

ROARING MARY (Máire Bhéiceach). AKA and see “Foxie Mary.” Irish, Reel. D Major (Flaherty, Harker/Rafferty, Kennedy, Mallinson, Miller, Mulvihill): D Mixolydian (Breathnach). Standard tuning. AB (Flaherty): AABB (Breathnach, Harker/Rafferty,  Kennedy, Mallinson, Mulvihill). The tune is often associated with accordion player Joe Cooley, who typically played it last in a set of three tunes along with "Humours of Tulla" and "The Skylark [1].” The medley (sometimes just “The Skylark” followed by “Roaring Mary”) is still a popular combination at sessions. Martin O’Connor is said to have mentioned that Roaring Mary was one of Joe Cooley’s students. The title, however, is very close to “Foxie Mary,” which title the tune appears under in Ryan’s Mammoth Collection, 1883 (pg. 30). Sligo fiddler Paddy Killoran recorded the tune in New York in the 78 RPM era, again under the title “Roaring Mary,” predating by a generation Cooley and his student. “Foxie Mary” is given as an alternate title by Peter Kennedy, taken perhaps from the Ryan’s Mammoth source. Sources for notated versions: accordion player Sonny Brogan (County Sligo/Dublin, Ireland) [Breathnach]; flute player Pat Meehan (b. 1960, Killaraght area, south Sligo) [Flaherty]; Gus Collins (Bronx, New York) [Mullvihill]; New Jersey flute player Mike Rafferty, born in Ballinakill, Co. Galway, in 1926 [Harker]. Breathnach (CRÉ I), 1963; No. 161, pg. 64. Flaherty (Trip to Sligo), 1990; pg. 104. Harker (300 Tunes from Mike Rafferty), 2005; No. 81, pg. 26. Kennedy (Traditional Dance Music of Britain and Ireland: Reels and Rants), 1997; No. 172, pg. 40. Lyth (Bowing Styles in Irish Fiddle Playing, vol. 1), 1981; 71. Mallinson (Essential), 1995; No. 41, pg. 18. Miller (Fiddler’s Throne), 2004; No. 243, pg. 148. Mulvihill (1st Collection), 1986; No. 20, pg. 5.

See also listings at:

Alan Snyder’s Cape Breton Fiddle Recording Index

Jane Keefer’s Folk Music Index: An Index to Recorded Sources 

Alan Ng’s Irishtune.info

